X: 10
T: The Keel Row
R: strathspey
M: 4/4
L: 1/8
K: Gmaj
d>c |B2 G>B c2 A>c | B2 G>B A>FD>c |\
(3BcB G>B (3cdc A>c | B<GA>F G2- G>d |
B>G (3GGG c>A (3AAA | B>G (3GGG A>F D2 |\
B2 G>B c2 A>c | B>GD>F G2- ||
G>c |B<dd>g e2 d>c | B2 G>B A<F D2 |\
B<dd>g (3ege d>c | B>GA<F G2 d>c |
(3Bcd G>g e>Gd>G | B>D (3GAB A<FD>c |\
B>d (3def g>de>c | B<dD>F G2 |]


Tune 3637	Setting 24879

